X:274
T:Steirer (72.)
C:traditionell
A:Salzkammergut
S:MIDI erhalten von Christian Amon. Nach einer kopie im besitz von Johann Stoeckl eines manuscriptes. Stoeckl(zitiert von Amon): "diese sammlung wurde 1935 im hause der familie Hohenlohe-Schillingfuerst gefunden. Sie wurde von einem der beiden brueder Steinegger 1866 verfasst. Die originale sind im Ausseer Kammerhofmuseum".
M:3/4
L:1/8
K:G
V:1
GB Bg dG | FA Ac D2 | FA Af df | GB Bd G2 |\
GB Bg dB | FA Ac D2 | FA Af dF | G4 z2 |*
V:2
Bd db gB | Ac ce F2 |Ac ca fa | Bd dg B2 |\
Bddb gB |Ac ce F2 |Ac ca fA | B4 z2 |*
